material/.icons/material/cellphone-off.svg

<svg xmlns="http://www.w3.org/2000/svg" viewBox="0 0 24 24"><path d="M2.38 1.73L1.11 3 5 6.89V21a2 2 0 002 2h10a2 2 0 002-2v-.11l1.84 1.84 1.27-1.27M17 19H7V8.89l10 10V19m0-14v8.8l2 2V3a2 2 0 00-2-2H7c-.72 0-1.4.37-1.76 1l3 3H17z"/></svg>

<?xml version="1.0" encoding="UTF-8"?><!DOCTYPE svg PUBLIC "-//W3C//DTD SVG 1.1//EN" "http://www.w3.org/Graphics/SVG/1.1/DTD/svg11.dtd"><svg xmlns="http://www.w3.org/2000/svg" xmlns:xlink="http://www.w3.org/1999/xlink" version="1.1" id="mdi-cellphone-off" width="24" height="24" viewBox="0 0 24 24"><path d="M2.38,1.73L1.11,3L5,6.89V21A2,2 0 0,0 7,23H17A2,2 0 0,0 19,21V20.89L20.84,22.73L22.11,21.46M17,19H7V8.89L17,18.89V19M17,5V13.8L19,15.8V3A2,2 0 0,0 17,1H7C6.28,1 5.6,1.37 5.24,2L8.24,5H17Z" /></svg>
